server/public/icons/misc/namespace-icon.svg

<svg width="14" height="14" viewBox="0 0 14 14" fill="none" xmlns="http://www.w3.org/2000/svg">
<path d="M3 6V3H6V0H2C0.89543 0 0 0.895431 0 2V6H3Z" fill="#5C7080"/>
<path d="M8 3H11V6H14V2C14 0.89543 13.1046 0 12 0H8V3Z" fill="#5C7080"/>
<path d="M11 8V11H8V14H12C13.1046 14 14 13.1046 14 12V8H11Z" fill="#5C7080"/>
<path d="M6 11H3V8H0V12C0 13.1046 0.895431 14 2 14H6V11Z" fill="#5C7080"/>
<rect x="5" y="5" width="4" height="4" rx="1" fill="#5C7080"/>
</svg>

<svg width="14" height="14" fill="none" xmlns="http://www.w3.org/2000/svg"><path d="M3 6V3h3V0H2a2 2 0 00-2 2v4h3zM8 3h3v3h3V2a2 2 0 00-2-2H8v3zM11 8v3H8v3h4a2 2 0 002-2V8h-3zM6 11H3V8H0v4a2 2 0 002 2h4v-3z" fill="#5C7080"/><rect x="5" y="5" width="4" height="4" rx="1" fill="#5C7080"/></svg>
